src/DGRulerControl/skin/basic/img/DGRoundControl__rulerIconHover.svg

<svg xmlns="http://www.w3.org/2000/svg" width="16" height="9"><path fill="#424242" d="M12.999 0v4.001h-1v-4.001h-2v2h-1v-2h-2v2h-.999v-2h-2.002v4.001h-1v-4.001h-3v8h16.002v-8z"/><path fill="#2E2E2E" d="M2.999 4h1v1h-1zM5.999 2h1v1h-1zM8.999 2h1v1h-1zM11.999 4h1v1h-1z"/><path fill="#fff" d="M0 8h16v1h-16z"/><path fill="#2E2E2E" d="M0 0h3v1h-3zM13 0h3v1h-3zM10 0h2v1h-2zM7 0h2v1h-2zM4 0h2v1h-2z"/></svg>

<svg xmlns="http://www.w3.org/2000/svg" width="16" height="9">
    <path d="m 12.999,0 v 4.001 h -1 V 0 h -2 v 2 h -1 V 0 h -2 V 2 H 6 V 0 H 3.998 v 4.001 h -1 V 0 h -3 V 8 H 16 V 0 z" fill="#424242"/>
    <path d="m 2.999,4 h 1 v 1 h -1 z m 3,-2 h 1 v 1 h -1 z m 3,0 h 1 v 1 h -1 z m 3,2 h 1 v 1 h -1 z" fill="#2e2e2e"/>
    <path d="M 0,8 H 16 V 9 H 0 z" fill="#fff"/>
    <path d="M 0,0 H 3 V 1 H 0 z m 13,0 h 3 v 1 h -3 z m -3,0 h 2 V 1 H 10 z M 7,0 H 9 V 1 H 7 z M 4,0 H 6 V 1 H 4 z" fill="#2e2e2e"/>
</svg>
